icon-themes/karasa_jaga_svg/sw/res/doublepage_a_10x22.svg

<svg height="10" viewBox="0 0 22 10" width="22" xmlns="http://www.w3.org/2000/svg"><g fill="#3689e6"><path d="m11 10v-10h-1-6-1v1 5 1l3 3h1 3zm-1-1h-3v-2-1h-1-2v-5h6zm-4 0-2-2h2z"/><path d="m11 10v-10h1 6 1v1 5 1l-3 3h-1-3zm1-1h3v-2-1h1 2v-5h-6zm4 0 2-2h-2z"/></g></svg>

<?xml version="1.0" encoding="UTF-8" standalone="no"?>
<svg
   height="14"
   viewBox="0 0 22 14"
   width="22"
   version="1.1"
   id="svg297"
   sodipodi:docname="doublepage_a_10x22.svg"
   inkscape:version="1.2.2 (b0a8486541, 2022-12-01)"
   inkscape:export-filename="doublepage_a_10x22.png"
   inkscape:export-xdpi="90"
   inkscape:export-ydpi="90"
   xmlns:inkscape="http://www.inkscape.org/namespaces/inkscape"
   xmlns:sodipodi="http://sodipodi.sourceforge.net/DTD/sodipodi-0.dtd"
   xmlns="http://www.w3.org/2000/svg"
   xmlns:svg="http://www.w3.org/2000/svg">
  <defs
     id="defs301" />
  <sodipodi:namedview
     id="namedview299"
     pagecolor="#505050"
     bordercolor="#ffffff"
     borderopacity="1"
     inkscape:showpageshadow="0"
     inkscape:pageopacity="0"
     inkscape:pagecheckerboard="1"
     inkscape:deskcolor="#505050"
     showgrid="false"
     inkscape:zoom="23.6"
     inkscape:cx="10.805085"
     inkscape:cy="6.3771186"
     inkscape:window-width="1655"
     inkscape:window-height="937"
     inkscape:window-x="457"
     inkscape:window-y="82"
     inkscape:window-maximized="0"
     inkscape:current-layer="svg297" />
  <g
     fill="#3689e6"
     id="g295"
     transform="translate(0,2)">
    <path
       d="M 11,10 V 0 H 10 4 3 v 1 5 1 l 3,3 h 1 3 z M 10,9 H 7 V 7 6 H 6 4 V 1 h 6 z M 6,9 4,7 h 2 z"
       id="path291" />
    <path
       d="M 11,10 V 0 h 1 6 1 v 1 5 1 l -3,3 h -1 -3 z m 1,-1 h 3 V 7 6 h 1 2 V 1 h -6 z m 4,0 2,-2 h -2 z"
       id="path293" />
  </g>
  <rect
     style="fill:none;fill-opacity:0;stroke:#8c8c8c;stroke-width:1;stroke-linecap:round;stroke-linejoin:bevel;stroke-dasharray:none;stroke-opacity:1;paint-order:markers stroke fill"
     id="rect1637"
     width="19"
     height="13.000001"
     x="1.5000001"
     y="0.5" />
</svg>
